X: 432
T: Briarpicker Brown
B: jims roots
M:C|
Q: 1/4=100
K:D
V:1 
%R: reel
AB| "D"d2B2 A2FA| BAFE D2A2| dcdf "A"edea| "D"fedA "A"B2AB|
"D"d2B2 A2FA| BAFE D2A2| dcdf "A"edea| "D"fd-d2 d2 :|
|: fg| "D"a4 a2fa| bafa "A"e2fg| "D"a2ab a2f2| "A"e2d2 B2A2|
"D"fa-a2 a2fa| bafa "A"e2de| "D"fedB "A"ABdf| "D"ed-d2 d2 :|
fg|:"D"a2af a2ae | beae fedA | a2af a2g2 | f2dA Bdef |
a2af a2ae | beae fedA | fafe "(A)"dABd |[1e2"(D)"d4 (3efg:| [2e2"(D)"d4 (3ABc |]
% abcbook-tune_id 6298c245871df20eda0c7410


% abcbook-boost 0
% abcbook-tablature 
% abcbook-transpose 
% abcbook-lastupdated 1654178373501
% abcbook-soundfonts 
% abcbook-repeats 1


